X: 15255
T: Girl Of The House, The
R: jig
M: 6/8
K: Dmixolydian
|:AG|(3FGA D DAD|A3 GEA|DAD AGE|(3FGA D DAG|
(3FGA D G3|ADA (3Bcd e|dcA GEA|D3 D:|
|:AB|cAA AGF|G3 GFG|AdB cAG|Ad^c d2e|
(3gfe d cAG|FDF GEA|dcA GEA|D3 D:|

